svgs/thin/rotate-left.svg

<svg xmlns="http://www.w3.org/2000/svg" viewBox="0 0 512 512"><!--! Font Awesome Pro 6.3.0 by @fontawesome - https://fontawesome.com License - https://fontawesome.com/license (Commercial License) Copyright 2023 Fonticons, Inc. --><path d="M0 56.66v142.7C0 212.1 11.03 224 24.63 224h142.7C177.5 224 186.2 218.2 190.1 208.8s1.844-19.66-5.344-26.83L114.6 111.8l2.834-3.416c80.69-80.56 212.6-80.5 293.7 .5469c81.09 81.09 81.09 213 0 294.2c-81.13 81.06-213.1 81.03-294.2 0c-3.156-3.156-8.219-3.094-11.31 0c-3.125 3.125-3.125 8.188 0 11.31c43.69 43.66 101 65.5 158.4 65.5s114.7-21.84 158.4-65.5c87.31-87.34 87.31-229.5 0-316.8c-87.38-87.34-229.4-87.34-316.8 0L103.2 100.4L42.03 39.25C34.84 32.09 24.63 30.05 15.19 33.91C5.813 37.8 0 46.52 0 56.66zM16 56.66c0-5.344 4.062-7.453 5.312-7.969c.5938-.2344 1.875-.6719 3.469-.6719c1.781 0 3.938 .5469 5.938 2.547l142.7 142.7c3.781 3.781 2.375 8.156 1.875 9.406C174.8 203.9 172.7 208 167.3 208H24.63C19.88 208 16 204.1 16 199.4V56.66z"/></svg>

<svg xmlns="http://www.w3.org/2000/svg" viewBox="0 0 512 512"><!-- Font Awesome Pro 6.0.0-alpha2 by @fontawesome - https://fontawesome.com License - https://fontawesome.com/license (Commercial License) --><path d="M0 56.656V199.375C0 212.953 11.031 224 24.625 224H167.344C177.5 224 186.219 218.172 190.094 208.797S191.938 189.141 184.75 181.969L114.572 111.791L117.406 108.375C198.094 27.812 330.031 27.875 411.094 108.922C492.188 190.016 492.188 321.969 411.094 403.094C329.969 484.156 198.031 484.125 116.906 403.094C113.75 399.937 108.688 400 105.594 403.094C102.469 406.219 102.469 411.281 105.594 414.406C149.281 458.062 206.625 479.906 264 479.906S378.719 458.062 422.406 414.406C509.719 327.062 509.719 184.937 422.406 97.609C335.031 10.266 192.969 10.266 105.594 97.609L103.227 100.445L42.031 39.25C34.844 32.094 24.625 30.047 15.188 33.906C5.812 37.797 0 46.516 0 56.656ZM16 56.656C16 51.312 20.062 49.203 21.312 48.688C21.906 48.453 23.188 48.016 24.781 48.016C26.562 48.016 28.719 48.562 30.719 50.562L173.437 193.281C177.219 197.062 175.812 201.437 175.312 202.687C174.781 203.922 172.688 208 167.344 208H24.625C19.875 208 16 204.125 16 199.375V56.656Z"/></svg>
